site/static/images/icons/guides.svg

<svg fill="none" height="32" viewBox="0 0 32 32" width="32" xmlns="http://www.w3.org/2000/svg"><circle cx="16" cy="16" fill="#f0f8ff" r="16"/><path clip-rule="evenodd" d="m7 8.96875c0-.46599.37776-.84375.84375-.84375h4.78445c1.3807 0 2.6066.66328 3.3762 1.68869.7696-1.02537 1.9955-1.68869 3.3762-1.68869h4.7756c.466 0 .8438.37776.8438.84375v11.81245c0 .466-.3778.8438-.8438.8438h-5.0708c-.6713 0-1.3151.2667-1.7898.7414l-.699.6989c-.3295.3295-.8637.3295-1.1932 0l-.699-.6989c-.4747-.4747-1.1185-.7414-1.7899-.7414h-5.07075c-.46599 0-.84375-.3778-.84375-.8438zm9.8494 3.37505c0-1.398 1.1333-2.5313 2.5312-2.5313h3.9319v10.125h-4.2271c-.7987 0-1.5741.2266-2.2403.644zm-1.6918 8.2395.0043-5.7075-.0024-2.5345c-.0014-1.397-1.1343-2.5288-2.5313-2.5288h-3.9407v10.125h4.227c.7999 0 1.5764.2271 2.2431.6458z" fill="#0075ff" fill-rule="evenodd"/></svg>

<svg width="32" height="32" viewBox="0 0 32 32" fill="none" xmlns="http://www.w3.org/2000/svg">
<circle cx="16" cy="16" r="16" fill="#F0F8FF"/>
<path fill-rule="evenodd" clip-rule="evenodd" d="M7 8.96875C7 8.50276 7.37776 8.125 7.84375 8.125H12.6282C14.0089 8.125 15.2348 8.78828 16.0044 9.81369C16.774 8.78832 17.9999 8.125 19.3806 8.125H24.1562C24.6222 8.125 25 8.50276 25 8.96875V20.7812C25 21.2472 24.6222 21.625 24.1562 21.625H19.0854C18.4141 21.625 17.7703 21.8917 17.2956 22.3664L16.5966 23.0653C16.2671 23.3948 15.7329 23.3948 15.4034 23.0653L14.7044 22.3664C14.2297 21.8917 13.5859 21.625 12.9145 21.625H7.84375C7.37776 21.625 7 21.2472 7 20.7812V8.96875ZM16.8494 12.3438C16.8494 10.9458 17.9827 9.8125 19.3806 9.8125H23.3125V19.9375H19.0854C18.2867 19.9375 17.5113 20.1641 16.8451 20.5815L16.8494 12.3438ZM15.1576 20.5833L15.1619 14.8758L15.1595 12.3413C15.1581 10.9443 14.0252 9.8125 12.6282 9.8125H8.6875V19.9375H12.9145C13.7144 19.9375 14.4909 20.1646 15.1576 20.5833Z" fill="#0075ff"/>
</svg>
